bernoullicharts/1_1_x_two-coin_special_case__mean.svg

<?xml version="1.0" encoding="utf-8" standalone="no"?>
<!DOCTYPE svg PUBLIC "-//W3C//DTD SVG 1.1//EN"
  "http://www.w3.org/Graphics/SVG/1.1/DTD/svg11.dtd">
<!-- Created with matplotlib (https://matplotlib.org/) -->
<svg height="345.6pt" version="1.1" viewBox="0 0 460.8 345.6" width="460.8pt" xmlns="http://www.w3.org/2000/svg" xmlns:xlink="http://www.w3.org/1999/xlink">
 <defs>
  <style type="text/css">
*{stroke-linecap:butt;stroke-linejoin:round;}
  </style>
 </defs>
 <g id="figure_1">
  <g id="patch_1">
   <path d="M 0 345.6 
L 460.8 345.6 
L 460.8 0 
L 0 0 
z
" style="fill:#ffffff;"/>
  </g>
  <g id="axes_1">
   <g id="patch_2">
    <path d="M 57.6 307.584 
L 414.72 307.584 
L 414.72 41.472 
L 57.6 41.472 
z
" style="fill:#ffffff;"/>
   </g>
   <g id="matplotlib.axis_1">
    <g id="xtick_1">
     <g id="line2d_1">
      <defs>
       <path d="M 0 0 
L 0 3.5 
" id="ma37ce2b787" style="stroke:#000000;stroke-width:0.8;"/>
      </defs>
      <g>
       <use style="stroke:#000000;stroke-width:0.8;" x="73.800255" xlink:href="#ma37ce2b787" y="307.584"/>
      </g>
     </g>
     <g id="text_1">
      <text style="font-family:DejaVu Sans;font-size:10px;font-style:normal;font-weight:normal;text-anchor:middle;" transform="rotate(-0, 73.800255, 322.182437)" x="73.800255" y="322.182437">0.0</text>
     </g>
    </g>
    <g id="xtick_2">
     <g id="line2d_2">
      <g>
       <use style="stroke:#000000;stroke-width:0.8;" x="138.744153" xlink:href="#ma37ce2b787" y="307.584"/>
      </g>
     </g>
     <g id="text_2">
      <text style="font-family:DejaVu Sans;font-size:10px;font-style:normal;font-weight:normal;text-anchor:middle;" transform="rotate(-0, 138.744153, 322.182437)" x="138.744153" y="322.182437">0.2</text>
     </g>
    </g>
    <g id="xtick_3">
     <g id="line2d_3">
      <g>
       <use style="stroke:#000000;stroke-width:0.8;" x="203.688051" xlink:href="#ma37ce2b787" y="307.584"/>
      </g>
     </g>
     <g id="text_3">
      <text style="font-family:DejaVu Sans;font-size:10px;font-style:normal;font-weight:normal;text-anchor:middle;" transform="rotate(-0, 203.688051, 322.182437)" x="203.688051" y="322.182437">0.4</text>
     </g>
    </g>
    <g id="xtick_4">
     <g id="line2d_4">
      <g>
       <use style="stroke:#000000;stroke-width:0.8;" x="268.631949" xlink:href="#ma37ce2b787" y="307.584"/>
      </g>
     </g>
     <g id="text_4">
      <text style="font-family:DejaVu Sans;font-size:10px;font-style:normal;font-weight:normal;text-anchor:middle;" transform="rotate(-0, 268.631949, 322.182437)" x="268.631949" y="322.182437">0.6</text>
     </g>
    </g>
    <g id="xtick_5">
     <g id="line2d_5">
      <g>
       <use style="stroke:#000000;stroke-width:0.8;" x="333.575847" xlink:href="#ma37ce2b787" y="307.584"/>
      </g>
     </g>
     <g id="text_5">
      <text style="font-family:DejaVu Sans;font-size:10px;font-style:normal;font-weight:normal;text-anchor:middle;" transform="rotate(-0, 333.575847, 322.182437)" x="333.575847" y="322.182437">0.8</text>
     </g>
    </g>
    <g id="xtick_6">
     <g id="line2d_6">
      <g>
       <use style="stroke:#000000;stroke-width:0.8;" x="398.519745" xlink:href="#ma37ce2b787" y="307.584"/>
      </g>
     </g>
     <g id="text_6">
      <text style="font-family:DejaVu Sans;font-size:10px;font-style:normal;font-weight:normal;text-anchor:middle;" transform="rotate(-0, 398.519745, 322.182437)" x="398.519745" y="322.182437">1.0</text>
     </g>
    </g>
    <g id="text_7">
     <text style="font-family:DejaVu Sans;font-size:10px;font-style:normal;font-weight:normal;text-anchor:middle;" transform="rotate(-0, 236.16, 335.860562)" x="236.16" y="335.860562">Input Coin's Heads Probability (λ)</text>
    </g>
   </g>
   <g id="matplotlib.axis_2">
    <g id="ytick_1">
     <g id="line2d_7">
      <defs>
       <path d="M 0 0 
L -3.5 0 
" id="m53d899a407" style="stroke:#000000;stroke-width:0.8;"/>
      </defs>
      <g>
       <use style="stroke:#000000;stroke-width:0.8;" x="57.6" xlink:href="#m53d899a407" y="283.529977"/>
      </g>
     </g>
     <g id="text_8">
      <text style="font-family:DejaVu Sans;font-size:10px;font-style:normal;font-weight:normal;text-anchor:end;" transform="rotate(-0, 50.6, 287.329196)" x="50.6" y="287.329196">0.5</text>
     </g>
    </g>
    <g id="ytick_2">
     <g id="line2d_8">
      <g>
       <use style="stroke:#000000;stroke-width:0.8;" x="57.6" xlink:href="#m53d899a407" y="237.537582"/>
      </g>
     </g>
     <g id="text_9">
      <text style="font-family:DejaVu Sans;font-size:10px;font-style:normal;font-weight:normal;text-anchor:end;" transform="rotate(-0, 50.6, 241.3368)" x="50.6" y="241.3368">0.6</text>
     </g>
    </g>
    <g id="ytick_3">
     <g id="line2d_9">
      <g>
       <use style="stroke:#000000;stroke-width:0.8;" x="57.6" xlink:href="#m53d899a407" y="191.545186"/>
      </g>
     </g>
     <g id="text_10">
      <text style="font-family:DejaVu Sans;font-size:10px;font-style:normal;font-weight:normal;text-anchor:end;" transform="rotate(-0, 50.6, 195.344405)" x="50.6" y="195.344405">0.7</text>
     </g>
    </g>
    <g id="ytick_4">
     <g id="line2d_10">
      <g>
       <use style="stroke:#000000;stroke-width:0.8;" x="57.6" xlink:href="#m53d899a407" y="145.552791"/>
      </g>
     </g>
     <g id="text_11">
      <text style="font-family:DejaVu Sans;font-size:10px;font-style:normal;font-weight:normal;text-anchor:end;" transform="rotate(-0, 50.6, 149.35201)" x="50.6" y="149.35201">0.8</text>
     </g>
    </g>
    <g id="ytick_5">
     <g id="line2d_11">
      <g>
       <use style="stroke:#000000;stroke-width:0.8;" x="57.6" xlink:href="#m53d899a407" y="99.560395"/>
      </g>
     </g>
     <g id="text_12">
      <text style="font-family:DejaVu Sans;font-size:10px;font-style:normal;font-weight:normal;text-anchor:end;" transform="rotate(-0, 50.6, 103.359614)" x="50.6" y="103.359614">0.9</text>
     </g>
    </g>
    <g id="ytick_6">
     <g id="line2d_12">
      <g>
       <use style="stroke:#000000;stroke-width:0.8;" x="57.6" xlink:href="#m53d899a407" y="53.568"/>
      </g>
     </g>
     <g id="text_13">
      <text style="font-family:DejaVu Sans;font-size:10px;font-style:normal;font-weight:normal;text-anchor:end;" transform="rotate(-0, 50.6, 57.367219)" x="50.6" y="57.367219">1.0</text>
     </g>
    </g>
    <g id="text_14">
     <text style="font-family:DejaVu Sans;font-size:10px;font-style:normal;font-weight:normal;text-anchor:middle;" transform="rotate(-90, 28.617187, 174.528)" x="28.617187" y="174.528">Simulated Mean / Function Value</text>
    </g>
   </g>
   <g id="line2d_13">
    <path clip-path="url(#p82b6558807)" d="M 73.832727 53.613988 
L 77.112066 58.211402 
L 80.391405 62.717805 
L 83.670744 67.135872 
L 86.950083 71.468177 
L 90.229421 75.717192 
L 93.50876 79.885296 
L 96.788099 83.974779 
L 100.067438 87.987844 
L 103.346777 91.926614 
L 106.626116 95.793132 
L 109.905455 99.589369 
L 113.184793 103.317223 
L 116.464132 106.978526 
L 119.743471 110.575045 
L 123.02281 114.108483 
L 126.302149 117.580486 
L 129.581488 120.992642 
L 132.860826 124.346485 
L 136.140165 127.643498 
L 139.419504 130.885113 
L 142.698843 134.072714 
L 145.978182 137.207641 
L 149.257521 140.291188 
L 152.53686 143.324608 
L 155.816198 146.309113 
L 159.095537 149.245878 
L 162.374876 152.136039 
L 165.654215 154.980695 
L 168.933554 157.780915 
L 172.212893 160.53773 
L 175.492231 163.252142 
L 178.77157 165.925122 
L 182.050909 168.557612 
L 185.330248 171.150524 
L 188.609587 173.704745 
L 191.888926 176.221133 
L 195.168264 178.700524 
L 198.447603 181.143727 
L 201.726942 183.55153 
L 205.006281 185.924695 
L 208.28562 188.263964 
L 211.564959 190.57006 
L 214.844298 192.843682 
L 218.123636 195.085512 
L 221.402975 197.296212 
L 224.682314 199.476426 
L 227.961653 201.626779 
L 231.240992 203.747883 
L 234.520331 205.840328 
L 237.799669 207.904692 
L 241.079008 209.941537 
L 244.358347 211.95141 
L 247.637686 213.934841 
L 250.917025 215.892351 
L 254.196364 217.824443 
L 257.475702 219.73161 
L 260.755041 221.614331 
L 264.03438 223.473072 
L 267.313719 225.30829 
L 270.593058 227.120427 
L 273.872397 228.909917 
L 277.151736 230.677181 
L 280.431074 232.422631 
L 283.710413 234.146669 
L 286.989752 235.849685 
L 290.269091 237.532063 
L 293.54843 239.194174 
L 296.827769 240.836384 
L 300.107107 242.459047 
L 303.386446 244.06251 
L 306.665785 245.647112 
L 309.945124 247.213184 
L 313.224463 248.761049 
L 316.503802 250.291023 
L 319.78314 251.803414 
L 323.062479 253.298523 
L 326.341818 254.776645 
L 329.621157 256.238068 
L 332.900496 257.683074 
L 336.179835 259.111936 
L 339.459174 260.524926 
L 342.738512 261.922304 
L 346.017851 263.304329 
L 349.29719 264.671253 
L 352.576529 266.023321 
L 355.855868 267.360775 
L 359.135207 268.683849 
L 362.414545 269.992776 
L 365.693884 271.287779 
L 368.973223 272.569082 
L 372.252562 273.836898 
L 375.531901 275.091442 
L 378.81124 276.332919 
L 382.090579 277.561533 
L 385.369917 278.777483 
L 388.649256 279.980964 
L 391.928595 281.172166 
L 395.207934 282.351276 
L 398.487273 283.518479 
" style="fill:none;stroke:#1f77b4;stroke-linecap:square;stroke-width:1.5;"/>
   </g>
   <g id="line2d_14">
    <path clip-path="url(#p82b6558807)" d="M 73.832727 53.568 
L 77.112066 60.006935 
L 80.391405 64.606175 
L 83.670744 65.526023 
L 86.950083 70.125262 
L 90.229421 82.083285 
L 93.50876 82.083285 
L 96.788099 80.243589 
L 100.067438 83.003133 
L 103.346777 94.961156 
L 106.626116 105.999331 
L 109.905455 110.59857 
L 113.184793 101.400091 
L 116.464132 91.281764 
L 119.743471 112.438266 
L 123.02281 115.19781 
L 126.302149 130.835224 
L 129.581488 126.235985 
L 132.860826 115.19781 
L 136.140165 122.556593 
L 139.419504 141.873399 
L 142.698843 125.316137 
L 145.978182 132.67492 
L 149.257521 136.354312 
L 152.53686 149.232183 
L 155.816198 148.312335 
L 159.095537 145.552791 
L 162.374876 148.312335 
L 165.654215 163.029901 
L 168.933554 150.15203 
L 172.212893 163.949749 
L 175.492231 153.831422 
L 178.77157 179.587163 
L 182.050909 162.110053 
L 185.330248 185.106251 
L 188.609587 175.907772 
L 191.888926 172.22838 
L 195.168264 181.426859 
L 198.447603 170.388684 
L 201.726942 178.667316 
L 205.006281 191.545186 
L 208.28562 193.384882 
L 211.564959 198.90397 
L 214.844298 194.30473 
L 218.123636 185.106251 
L 221.402975 204.423057 
L 224.682314 198.90397 
L 227.961653 203.503209 
L 231.240992 212.701688 
L 234.520331 209.022297 
L 237.799669 227.419255 
L 241.079008 206.262753 
L 244.358347 209.942144 
L 247.637686 226.499407 
L 250.917025 223.739863 
L 254.196364 222.820015 
L 257.475702 232.018494 
L 260.755041 228.339103 
L 264.03438 206.262753 
L 267.313719 218.220776 
L 270.593058 246.736061 
L 273.872397 202.583361 
L 277.151736 229.258951 
L 280.431074 224.659711 
L 283.710413 231.098646 
L 286.989752 240.297125 
L 290.269091 247.655909 
L 293.54843 254.094844 
L 296.827769 250.415452 
L 300.107107 248.575757 
L 303.386446 236.617734 
L 306.665785 232.018494 
L 309.945124 243.976517 
L 313.224463 259.613932 
L 316.503802 268.812411 
L 319.78314 261.453627 
L 323.062479 255.93454 
L 326.341818 252.255148 
L 329.621157 255.014692 
L 332.900496 250.415452 
L 336.179835 254.094844 
L 339.459174 243.056669 
L 342.738512 267.892563 
L 346.017851 267.892563 
L 349.29719 281.690281 
L 352.576529 254.094844 
L 355.855868 270.652106 
L 359.135207 260.533779 
L 362.414545 266.052867 
L 365.693884 285.369673 
L 368.973223 272.491802 
L 372.252562 266.972715 
L 375.531901 289.968913 
L 378.81124 271.571954 
L 382.090579 295.488 
L 385.369917 289.049065 
L 388.649256 259.613932 
L 391.928595 266.052867 
L 395.207934 276.171194 
L 398.487273 278.930738 
" style="fill:none;stroke:#ff7f0e;stroke-linecap:square;stroke-width:1.5;"/>
   </g>
   <g id="patch_3">
    <path d="M 57.6 307.584 
L 57.6 41.472 
" style="fill:none;stroke:#000000;stroke-linecap:square;stroke-linejoin:miter;stroke-width:0.8;"/>
   </g>
   <g id="patch_4">
    <path d="M 414.72 307.584 
L 414.72 41.472 
" style="fill:none;stroke:#000000;stroke-linecap:square;stroke-linejoin:miter;stroke-width:0.8;"/>
   </g>
   <g id="patch_5">
    <path d="M 57.6 307.584 
L 414.72 307.584 
" style="fill:none;stroke:#000000;stroke-linecap:square;stroke-linejoin:miter;stroke-width:0.8;"/>
   </g>
   <g id="patch_6">
    <path d="M 57.6 41.472 
L 414.72 41.472 
" style="fill:none;stroke:#000000;stroke-linecap:square;stroke-linejoin:miter;stroke-width:0.8;"/>
   </g>
   <g id="text_15">
    <text style="font-family:DejaVu Sans;font-size:12px;font-style:normal;font-weight:normal;" transform="translate(47.746875 22.034625)">Simulated Mean for 1/(1+x) (Two-Coin Special Case) Algorithm</text>
    <text style="font-family:DejaVu Sans;font-size:12px;font-style:normal;font-weight:normal;" transform="translate(132.609375 35.472)">(Wasserstein Distances in Legend)</text>
   </g>
   <g id="legend_1">
    <g id="patch_7">
     <path d="M 229.47 78.82825 
L 407.72 78.82825 
Q 409.72 78.82825 409.72 76.82825 
L 409.72 48.472 
Q 409.72 46.472 407.72 46.472 
L 229.47 46.472 
Q 227.47 46.472 227.47 48.472 
L 227.47 76.82825 
Q 227.47 78.82825 229.47 78.82825 
z
" style="fill:#ffffff;opacity:0.8;stroke:#cccccc;stroke-linejoin:miter;"/>
    </g>
    <g id="line2d_15">
     <path d="M 231.47 54.570437 
L 251.47 54.570437 
" style="fill:none;stroke:#1f77b4;stroke-linecap:square;stroke-width:1.5;"/>
    </g>
    <g id="line2d_16"/>
    <g id="text_16">
     <text style="font-family:DejaVu Sans;font-size:10px;font-style:normal;font-weight:normal;text-anchor:start;" transform="rotate(-0, 259.47, 58.070437)" x="259.47" y="58.070437">1/(1+x)</text>
    </g>
    <g id="line2d_17">
     <path d="M 231.47 69.248562 
L 251.47 69.248562 
" style="fill:none;stroke:#ff7f0e;stroke-linecap:square;stroke-width:1.5;"/>
    </g>
    <g id="line2d_18"/>
    <g id="text_17">
     <text style="font-family:DejaVu Sans;font-size:10px;font-style:normal;font-weight:normal;text-anchor:start;" transform="rotate(-0, 259.47, 72.748562)" x="259.47" y="72.748562">Simul. Mean (WD=0.004663)</text>
    </g>
   </g>
  </g>
 </g>
 <defs>
  <clipPath id="p82b6558807">
   <rect height="266.112" width="357.12" x="57.6" y="41.472"/>
  </clipPath>
 </defs>
</svg>

<svg height="460.8" viewBox="0 0 460.8 345.6" width="614.4" xmlns="http://www.w3.org/2000/svg" xmlns:xlink="http://www.w3.org/1999/xlink"><defs><style>*{stroke-linecap:butt;stroke-linejoin:round}</style></defs><g id="figure_1"><path d="M0 345.6h460.8V0H0z" fill="#fff" id="patch_1"/><g id="axes_1"><path d="M57.6 307.584h357.12V41.472H57.6z" fill="#fff" id="patch_2"/><g id="matplotlib.axis_1"><g id="xtick_1"><g id="line2d_1"><defs><path d="M0 0v3.5" id="ma37ce2b787" stroke="#000" stroke-width=".8"/></defs><use x="73.8" xlink:href="#ma37ce2b787" y="307.584" stroke="#000" stroke-width=".8"/></g><text x="73.8" y="322.182" font-family="DejaVu Sans" font-size="10" font-weight="400" text-anchor="middle" id="text_1">0.0</text></g><g id="xtick_2"><use x="138.744" xlink:href="#ma37ce2b787" y="307.584" stroke="#000" stroke-width=".8" id="line2d_2"/><text x="138.744" y="322.182" font-family="DejaVu Sans" font-size="10" font-weight="400" text-anchor="middle" id="text_2">0.2</text></g><g id="xtick_3"><use x="203.688" xlink:href="#ma37ce2b787" y="307.584" stroke="#000" stroke-width=".8" id="line2d_3"/><text x="203.688" y="322.182" font-family="DejaVu Sans" font-size="10" font-weight="400" text-anchor="middle" id="text_3">0.4</text></g><g id="xtick_4"><use x="268.632" xlink:href="#ma37ce2b787" y="307.584" stroke="#000" stroke-width=".8" id="line2d_4"/><text x="268.632" y="322.182" font-family="DejaVu Sans" font-size="10" font-weight="400" text-anchor="middle" id="text_4">0.6</text></g><g id="xtick_5"><use x="333.576" xlink:href="#ma37ce2b787" y="307.584" stroke="#000" stroke-width=".8" id="line2d_5"/><text x="333.576" y="322.182" font-family="DejaVu Sans" font-size="10" font-weight="400" text-anchor="middle" id="text_5">0.8</text></g><g id="xtick_6"><use x="398.52" xlink:href="#ma37ce2b787" y="307.584" stroke="#000" stroke-width=".8" id="line2d_6"/><text x="398.52" y="322.182" font-family="DejaVu Sans" font-size="10" font-weight="400" text-anchor="middle" id="text_6">1.0</text></g><text x="236.16" y="335.861" font-family="DejaVu Sans" font-size="10" font-weight="400" text-anchor="middle" id="text_7">Input Coin&apos;s Heads Probability (λ)</text></g><g id="matplotlib.axis_2"><g id="ytick_1"><g id="line2d_7"><defs><path d="M0 0h-3.5" id="m53d899a407" stroke="#000" stroke-width=".8"/></defs><use x="57.6" xlink:href="#m53d899a407" y="283.53" stroke="#000" stroke-width=".8"/></g><text x="50.6" y="287.329" font-family="DejaVu Sans" font-size="10" font-weight="400" text-anchor="end" id="text_8">0.5</text></g><g id="ytick_2"><use x="57.6" xlink:href="#m53d899a407" y="237.538" stroke="#000" stroke-width=".8" id="line2d_8"/><text x="50.6" y="241.337" font-family="DejaVu Sans" font-size="10" font-weight="400" text-anchor="end" id="text_9">0.6</text></g><g id="ytick_3"><use x="57.6" xlink:href="#m53d899a407" y="191.545" stroke="#000" stroke-width=".8" id="line2d_9"/><text x="50.6" y="195.344" font-family="DejaVu Sans" font-size="10" font-weight="400" text-anchor="end" id="text_10">0.7</text></g><g id="ytick_4"><use x="57.6" xlink:href="#m53d899a407" y="145.553" stroke="#000" stroke-width=".8" id="line2d_10"/><text x="50.6" y="149.352" font-family="DejaVu Sans" font-size="10" font-weight="400" text-anchor="end" id="text_11">0.8</text></g><g id="ytick_5"><use x="57.6" xlink:href="#m53d899a407" y="99.56" stroke="#000" stroke-width=".8" id="line2d_11"/><text x="50.6" y="103.36" font-family="DejaVu Sans" font-size="10" font-weight="400" text-anchor="end" id="text_12">0.9</text></g><g id="ytick_6"><use x="57.6" xlink:href="#m53d899a407" y="53.568" stroke="#000" stroke-width=".8" id="line2d_12"/><text x="50.6" y="57.367" font-family="DejaVu Sans" font-size="10" font-weight="400" text-anchor="end" id="text_13">1.0</text></g><text transform="rotate(-90 28.617 174.528)" x="28.617" y="174.528" font-family="DejaVu Sans" font-size="10" font-weight="400" text-anchor="middle" id="text_14">Simulated Mean / Function Value</text></g><path clip-path="url(#p82b6558807)" d="M73.833 53.614l3.28 4.597 3.278 4.507 3.28 4.418 3.28 4.332 3.278 4.25 3.28 4.167 3.28 4.09 3.278 4.013 3.28 3.939 3.28 3.866 3.278 3.796 3.28 3.728 3.28 3.662 3.278 3.596 3.28 3.533 3.28 3.472 3.278 3.413 3.28 3.353 3.28 3.297 3.279 3.242 3.279 3.188 3.28 3.135 3.279 3.083 3.279 3.034 3.28 2.984 3.279 2.937 3.279 2.89 3.28 2.845 3.279 2.8 3.279 2.757 3.28 2.714 3.279 2.673 3.279 2.633 3.28 2.593 3.279 2.554 3.279 2.516 3.28 2.48 3.279 2.443 3.279 2.408 3.28 2.373 3.279 2.339 3.279 2.306 3.28 2.274 3.279 2.242 3.279 2.21 3.28 2.18 3.279 2.15 3.279 2.122 3.28 2.092 3.279 2.065 3.279 2.037 3.28 2.01 3.279 1.983 3.279 1.957 3.28 1.932 3.279 1.908 3.279 1.882 3.28 1.86 3.279 1.834 3.28 1.812 3.278 1.79 3.28 1.767 3.28 1.746 3.278 1.724 3.28 1.703 3.28 1.682 3.278 1.662 3.28 1.642 3.28 1.623 3.278 1.604 3.28 1.584 3.28 1.566 3.278 1.548 3.28 1.53 3.28 1.512 3.278 1.496 3.28 1.478 3.28 1.461 3.278 1.445 3.28 1.429 3.28 1.413 3.279 1.397 3.279 1.382 3.28 1.367 3.279 1.352 3.279 1.338 3.28 1.323 3.279 1.309 3.279 1.295 3.28 1.281 3.279 1.268 3.279 1.254 3.28 1.242 3.279 1.229 3.279 1.215 3.28 1.204 3.279 1.191 3.279 1.18 3.28 1.166" fill="none" stroke="#1f77b4" stroke-linecap="square" stroke-width="1.5" id="line2d_13"/><path clip-path="url(#p82b6558807)" d="M73.833 53.568l3.28 6.439 3.278 4.6 3.28.919 3.28 4.6 3.278 11.957h3.28l3.28-1.84 3.278 2.76 3.28 11.958 3.28 11.038 3.278 4.6 3.28-9.199 3.28-10.118 3.278 21.156 3.28 2.76 3.28 15.637 3.278-4.599 3.28-11.038 3.28 7.359 3.279 19.316 3.279-16.557 3.28 7.359 3.279 3.68 3.279 12.877 3.28-.92 3.279-2.76 3.279 2.76 3.28 14.718 3.279-12.878 3.279 13.798 3.28-10.119 3.279 25.756 3.279-17.477 3.28 22.996 3.279-9.198 3.279-3.68 3.28 9.199 3.279-11.038 3.279 8.278 3.28 12.878 3.279 1.84 3.279 5.519 3.28-4.6 3.279-9.198 3.279 19.317 3.28-5.519 3.279 4.6 3.279 9.198 3.28-3.68 3.279 18.397 3.279-21.156 3.28 3.68 3.279 16.556 3.279-2.76 3.28-.919 3.279 9.198 3.279-3.679 3.28-22.076 3.279 11.958 3.28 28.515 3.278-44.153 3.28 26.676 3.28-4.6 3.278 6.44 3.28 9.198 3.28 7.359 3.278 6.439 3.28-3.68 3.28-1.84 3.278-11.957 3.28-4.6 3.28 11.959 3.278 15.637 3.28 9.198 3.28-7.358 3.278-5.52 3.28-3.679 3.28 2.76 3.278-4.6 3.28 3.68 3.28-11.038 3.279 24.836h3.279l3.28 13.797 3.279-27.595 3.279 16.557 3.28-10.118 3.279 5.519 3.279 19.317 3.28-12.878 3.279-5.52 3.279 22.997 3.28-18.397 3.279 23.916 3.279-6.439 3.28-29.435 3.279 6.439 3.279 10.118 3.28 2.76" fill="none" stroke="#ff7f0e" stroke-linecap="square" stroke-width="1.5" id="line2d_14"/><path d="M57.6 307.584V41.472" fill="none" stroke="#000" stroke-linecap="square" stroke-width=".8" id="patch_3"/><path d="M414.72 307.584V41.472" fill="none" stroke="#000" stroke-linecap="square" stroke-width=".8" id="patch_4"/><path d="M57.6 307.584h357.12" fill="none" stroke="#000" stroke-linecap="square" stroke-width=".8" id="patch_5"/><path d="M57.6 41.472h357.12" fill="none" stroke="#000" stroke-linecap="square" stroke-width=".8" id="patch_6"/><g id="text_15" font-family="DejaVu Sans" font-size="12" font-weight="400"><text transform="translate(47.747 22.035)">Simulated Mean for 1/(1+x) (Two-Coin Special Case) Algorithm</text><text transform="translate(132.61 35.472)">(Wasserstein Distances in Legend)</text></g><g id="legend_1"><path d="M229.47 78.828h178.25q2 0 2-2V48.472q0-2-2-2H229.47q-2 0-2 2v28.356q0 2 2 2z" fill="#fff" opacity=".8" stroke="#ccc" id="patch_7"/><path d="M231.47 54.57h20" fill="none" stroke="#1f77b4" stroke-linecap="square" stroke-width="1.5" id="line2d_15"/><text x="259.47" y="58.07" font-family="DejaVu Sans" font-size="10" font-weight="400" id="text_16">1/(1+x)</text><path d="M231.47 69.249h20" fill="none" stroke="#ff7f0e" stroke-linecap="square" stroke-width="1.5" id="line2d_17"/><text x="259.47" y="72.749" font-family="DejaVu Sans" font-size="10" font-weight="400" id="text_17">Simul. Mean (WD=0.004663)</text></g></g></g><defs><clipPath id="p82b6558807"><path d="M57.6 41.472h357.12v266.112H57.6z"/></clipPath></defs></svg>
